X: 14623
T: Gan Ainm
R: slip jig
M: 9/8
K: Dmajor
DA,D D2E F2F|DFD DFD EGE|DA,D D2E F2A|AGF EDC E/F/GE:|
|:A>BA G>AG F2F|D>FA/F/ D>FA/F/ EGE|A>BA G>AG F2A|AGF EDC E/F/GE:|
|:dAd d2e f3|dfa agf e/f/ge|dAd d2e f2a|agf edc e/f/ge:|
|:a>ba g>ag f2f|D>FA/F/ D>FA/F/ EGE|A>BA G>AG F2A|AGF EDC E/F/GE:|
|:dAd dAG F2F|D>FA/F/ D>FA/F/ EGE|{F}dAd dAG F2A|AGF EDC E/F/GE:|

